X: 3
T: The Pigtown Fling
R: reel
M: 4/4
L: 1/8
K: Gmaj
G2 g>e (3ded e>d | B>dg>e d>BA>B | G2 g>e (3ded e>d | B>GA>F G2 :|B>ee>d e>fg>e | f>g (3agf g>fe>d |1 B>ee>d e2 g>e | f>ga>f g2 :|2 G2 g>e (3ded e>d | B>GA>F G2 ||


Tune 80	Setting 80

